X: 9010
T: Da Auld Stoers Back Again
R: reel
M: 4/4
K: Gmajor
F|G2 dG BdBG|=F2cF AFFd|BGdG Bcde|dBcAG3:|
gfga gdde|=fefg fcc^f|gfga gdde|dBcAG3f|
gfga gdde|=fefg fcfg|a=fge fdec|dBcAG3||

